actions/16/distribute-vertical-y.svg

<svg xmlns="http://www.w3.org/2000/svg" style="fill-rule:evenodd;clip-rule:evenodd;stroke-linejoin:round;stroke-miterlimit:2" width="100%" height="100%" viewBox="0 0 16 16" xml:space="preserve">
 <defs>
  <style id="current-color-scheme" type="text/css">
   .ColorScheme-Text { color:#dfdfdf; } .ColorScheme-Highlight { color:#4285f4; } .ColorScheme-NeutralText { color:#ff9800; } .ColorScheme-PositiveText { color:#4caf50; } .ColorScheme-NegativeText { color:#f44336; }
  </style>
 </defs>
 <path style="fill:currentColor;" class="ColorScheme-Text" d="M3,11l0,4l10,0l0,-4l-10,0Zm1,1l0,2l8,0l0,-2l-8,0Zm2,-6l0,1l1,0l0,2l-1,0l0,1l4,0l0,-1l-1,0l0,-2l1,0l0,-1l-4,0Zm-3,-5l0,4l10,0l0,-4l-10,0Zm1,1l0,2l8,0l0,-2l-8,0Z"/>
</svg>

<svg xmlns="http://www.w3.org/2000/svg" style="fill-rule:evenodd;clip-rule:evenodd;stroke-linejoin:round;stroke-miterlimit:2" viewBox="0 0 16 16" xml:space="preserve">
    <defs>
        <style id="current-color-scheme" type="text/css">
            .ColorScheme-Highlight{color:#4285f4}.ColorScheme-NeutralText{color:#ff9800}.ColorScheme-PositiveText{color:#4caf50}.ColorScheme-NegativeText{color:#f44336}
        </style>
    </defs>
    <path style="fill:currentColor;color:#dfdfdf" d="M3 11v4h10v-4H3Zm1 1v2h8v-2H4Zm2-6v1h1v2H6v1h4V9H9V7h1V6H6ZM3 1v4h10V1H3Zm1 1v2h8V2H4Z"/>
</svg>
